X:1
T:D minor Oliver Holden, 1806
T:Anonymous Author, 1806 87. 87.
T:Phenomena
T:"Written on the total eclipse of the sun, June 16, 1806." Transcribed from The Psalmodist's Assistant, 1806.
%%score [ 1 2 3 ]
L:1/8
M:4/4
K:F
V:1 treble nm="Treble" snm="Tr."
V:2 treble-8 nm="Tenor" snm="T."
V:3 bass nm="Bass" snm="B."
V:1
 d2 d2 A2 G2 | FE FG A2 A2 || %2
"^Man and beast astonished stand!                                      While the shade o'er-spreads the land!" d2 c2 f2 [cf]2 | %3
 [cf]2 [Be]2 !fermata![Acf]4 | A2 A2 A2 G2 | FE D^C D2 D2 || fe d^c d2 (3def | d2 ^c2 d4 |] %8
V:2
"^See the noon-day clothed in darkness!                                See the stars look out and wonder," A2 A2 F2 E2 | %1
 D^C DE D2 D2 || A2 G2 A2 F2 | A2 G2 !fermata!F4 | d2 c2 f2 c2 | AG FE A2 A2 || d^c de A2 (3BAG | %7
 F2 E2 D4 |] %8
V:3
"^_________________________________________\nEdited by B. C. Johnston, 2015\n   1. Top staff, labeled \"Air\" switched with middle staff.\n   2. Measure 6, Tenor: fourth note changed from D to E." D,2 D,2 F,2 G,2 | %1
 A,2 A,,2 D,2 D,2 || D,2 E,2 F,2 A,B, | C2 C,2 !fermata!F,4 | F,2 F,2 F,2 G,2 | A,2 A,,2 D,2 D,2 || %6
 A,2 A,2 F,2 G,2 | A,2 A,,2 D,4 |] %8

